build/system/SwitchPinnedAreasSolid.svg

<svg xmlns="http://www.w3.org/2000/svg" fill="none" viewBox="0 0 24 24" focusable="false"><path d="M0 0H24V24H0z"/><path fill="#74767B" fill-rule="evenodd" d="M7 4C5.34315 4 4 5.34315 4 7L4 17C4 18.6569 5.34315 20 7 20L17 20C18.6569 20 20 18.6569 20 17L20 7C20 5.34315 18.6569 4 17 4L7 4ZM6.74332 14.0317L8.54038 15.8288C8.79422 16.0826 9.20578 16.0826 9.45962 15.8288L11.2567 14.0317C11.5105 13.7779 11.5105 13.3663 11.2567 13.1125C11.0028 12.8586 10.5913 12.8586 10.3374 13.1125L9.65 13.7999L9.65 12C9.65 10.7021 10.7021 9.65 12 9.65L13.7989 9.65L13.1115 10.3374C12.8576 10.5913 12.8576 11.0028 13.1115 11.2567C13.3653 11.5105 13.7769 11.5105 14.0307 11.2567L15.8278 9.45962C16.0816 9.20578 16.0816 8.79422 15.8278 8.54038L14.0307 6.74332C13.7769 6.48948 13.3653 6.48948 13.1115 6.74332C12.8576 6.99716 12.8576 7.40872 13.1115 7.66256L13.7989 8.35L12 8.35C9.98416 8.35 8.35 9.98416 8.35 12L8.35 13.7999L7.66256 13.1125C7.40872 12.8586 6.99716 12.8586 6.74332 13.1125C6.48948 13.3663 6.48948 13.7779 6.74332 14.0317ZM6.35 18C6.35 17.641 6.64102 17.35 7 17.35L16 17.35C16.359 17.35 16.65 17.641 16.65 18C16.65 18.359 16.359 18.65 16 18.65L7 18.65C6.64102 18.65 6.35 18.359 6.35 18ZM18.65 7C18.65 6.64102 18.359 6.35 18 6.35C17.641 6.35 17.35 6.64102 17.35 7L17.35 16C17.35 16.359 17.641 16.65 18 16.65C18.359 16.65 18.65 16.359 18.65 16L18.65 7Z"/><path fill="#74767B" fill-rule="evenodd" d="M4 7C4 5.34315 5.34315 4 7 4L17 4C18.6569 4 20 5.34315 20 7L20 17C20 18.6569 18.6569 20 17 20L7 20C5.34315 20 4 18.6569 4 17L4 7ZM18.4434 17.8994C18.4294 17.9027 18.4154 17.9058 18.4014 17.9088C18.2705 17.9363 18.1367 17.95 18 17.95C17.9831 17.95 17.9662 17.9498 17.9494 17.9494C17.9498 17.9662 17.95 17.9831 17.95 18C17.95 18.1367 17.9363 18.2705 17.9088 18.4014C17.9058 18.4154 17.9027 18.4294 17.8994 18.4434C17.9061 18.4392 17.9127 18.435 17.9193 18.4308C18.0206 18.3655 18.1149 18.2893 18.2021 18.2021C18.2893 18.1149 18.3655 18.0206 18.4308 17.9193C18.435 17.9127 18.4392 17.9061 18.4434 17.8994ZM5.30052 17.0431C5.32473 17 5.35052 16.958 5.37789 16.917C5.44846 16.8114 5.52954 16.7127 5.62114 16.6211C5.71274 16.5295 5.81137 16.4485 5.91702 16.3779C6.0184 16.3102 6.12625 16.2521 6.24057 16.2038C6.35743 16.1543 6.47679 16.1168 6.59865 16.0912C6.70536 16.0688 6.814 16.0555 6.92455 16.0514L5.82408 14.9509C5.72745 14.8543 5.64258 14.75 5.56947 14.638C5.50139 14.5337 5.44351 14.4228 5.39582 14.3052C5.35523 14.2051 5.32329 14.1033 5.3 13.9998L5.3 17C5.3 17.0144 5.30017 17.0288 5.30052 17.0431ZM5.3 13.1444L5.3 7C5.3 6.86255 5.31568 6.72888 5.34705 6.599C5.36843 6.51047 5.3971 6.4237 5.43306 6.33868C5.47136 6.24812 5.51675 6.16212 5.56922 6.08069C5.63449 5.97937 5.71072 5.88511 5.79792 5.79792C5.88511 5.71073 5.97936 5.63449 6.08068 5.56922C6.16212 5.51675 6.24812 5.47137 6.33868 5.43306C6.4237 5.3971 6.51047 5.36843 6.599 5.34705C6.72888 5.31568 6.86255 5.3 7 5.3L13.1434 5.3C13.0399 5.32329 12.9381 5.35523 12.838 5.39582C12.7204 5.44349 12.6095 5.50136 12.5053 5.56941C12.3932 5.64253 12.2889 5.72743 12.1922 5.82408C12.0956 5.92073 12.0107 6.02505 11.9376 6.13706C11.8695 6.24132 11.8117 6.35224 11.764 6.46982C11.7173 6.58485 11.6821 6.70215 11.6583 6.82173C11.6425 6.90137 11.6317 6.98202 11.626 7.06367C11.3934 7.08081 11.1645 7.11405 10.939 7.1634C10.6443 7.22791 10.3555 7.31996 10.0728 7.43953C9.79015 7.5591 9.52295 7.7021 9.27124 7.86853C8.99551 8.05084 8.73837 8.26127 8.49982 8.49982C8.26128 8.73836 8.05085 8.99549 7.86854 9.27122C7.70211 9.52293 7.5591 9.79014 7.43953 10.0728C7.31996 10.3555 7.22791 10.6443 7.1634 10.939C7.11398 11.1648 7.08072 11.3941 7.0636 11.6269C6.98197 11.6327 6.90135 11.6434 6.82173 11.6593C6.70215 11.6831 6.58485 11.7183 6.46982 11.765C6.35225 11.8126 6.24134 11.8705 6.13708 11.9386C6.02507 12.0117 5.92074 12.0966 5.82408 12.1932C5.72744 12.2899 5.64256 12.3942 5.56944 12.5062C5.50137 12.6105 5.4435 12.7214 5.39582 12.839C5.35523 12.939 5.32329 13.0409 5.3 13.1444ZM8.35 11.9946L8.35 12L8.35 13.7999L7.66292 13.1128L7.66256 13.1125C7.49645 12.9464 7.2628 12.8889 7.05 12.9402C6.93762 12.9673 6.83105 13.0247 6.74332 13.1125C6.48948 13.3663 6.48948 13.7779 6.74332 14.0317L6.74368 14.0321L8.54038 15.8288C8.79422 16.0826 9.20578 16.0826 9.45962 15.8288L9.65 15.6384L11.2567 14.0317C11.5105 13.7779 11.5105 13.3663 11.2567 13.1125C11.1689 13.0247 11.0624 12.9673 10.95 12.9402C10.7372 12.8889 10.5036 12.9464 10.3374 13.1125L9.65 13.7999L9.65 12L9.65001 11.9946C9.65146 11.3478 9.91421 10.7624 10.3383 10.3383C10.7622 9.91443 11.3472 9.65172 11.9936 9.65001L12 9.65L13.7989 9.65L13.112 10.3369L13.1115 10.3374C12.9454 10.5036 12.888 10.7372 12.9393 10.95C12.9663 11.0624 13.0238 11.1689 13.1115 11.2567C13.3653 11.5105 13.7769 11.5105 14.0307 11.2567L14.0312 11.2562L15.6374 9.65L15.8278 9.45962C16.0816 9.20578 16.0816 8.79422 15.8278 8.54038L15.6374 8.35L14.0311 6.74368L14.0307 6.74332C13.7769 6.48948 13.3653 6.48948 13.1115 6.74332C13.0238 6.83105 12.9663 6.93762 12.9393 7.05C12.888 7.2628 12.9454 7.49645 13.1115 7.66256L13.1118 7.66292L13.7989 8.35L12 8.35L11.9936 8.35001L11.9879 8.35002C11.6123 8.35124 11.25 8.40919 10.9092 8.51577C10.7049 8.57967 10.5083 8.66106 10.3211 8.75817C9.98853 8.93077 9.68586 9.15305 9.42293 9.41519C9.42164 9.41648 9.42035 9.41777 9.41906 9.41906C9.41777 9.42035 9.41648 9.42164 9.41519 9.42293C9.15305 9.68586 8.93077 9.98853 8.75817 10.3211C8.66106 10.5083 8.57967 10.7049 8.51577 10.9092C8.40917 11.2501 8.35121 11.6124 8.35002 11.9881L8.35 11.9946ZM16.05 11.0759L14.95 12.1759C14.8533 12.2726 14.749 12.3575 14.637 12.4306C14.5327 12.4986 14.4218 12.5565 14.3042 12.6042C14.1892 12.6508 14.0719 12.6861 13.9523 12.7099C13.8277 12.7347 13.7006 12.7471 13.5711 12.7471C13.4416 12.7471 13.3145 12.7347 13.1899 12.7099C13.0703 12.6861 12.953 12.6508 12.838 12.6042C12.7204 12.5565 12.6095 12.4986 12.5052 12.4305C12.3932 12.3574 12.2889 12.2726 12.1922 12.1759C12.0956 12.0793 12.0107 11.975 11.9376 11.863C11.8695 11.7587 11.8117 11.6478 11.764 11.5302C11.7173 11.4152 11.6821 11.2978 11.6583 11.1783C11.6476 11.1245 11.6392 11.0702 11.6331 11.0155C11.6192 11.0207 11.6054 11.0262 11.5917 11.032C11.5376 11.0549 11.4861 11.0818 11.4373 11.1129C11.3728 11.154 11.3129 11.2022 11.2575 11.2575C11.2022 11.3129 11.154 11.3728 11.1129 11.4373C11.0818 11.4862 11.0549 11.5376 11.032 11.5917C11.026 11.6057 11.0204 11.6199 11.0151 11.6341C11.07 11.6401 11.1244 11.6486 11.1783 11.6593C11.2979 11.6831 11.4152 11.7183 11.5302 11.765C11.6478 11.8126 11.7587 11.8705 11.863 11.9386C11.975 12.0117 12.0793 12.0966 12.1759 12.1932C12.2725 12.2899 12.3574 12.3942 12.4305 12.5061C12.4986 12.6104 12.5565 12.7214 12.6042 12.839C12.6508 12.954 12.6861 13.0713 12.7099 13.1909C12.7347 13.3155 12.7471 13.4426 12.7471 13.5721C12.7471 13.7016 12.7347 13.8287 12.7098 13.9533C12.686 14.0729 12.6508 14.1902 12.6042 14.3052C12.5565 14.4228 12.4986 14.5337 12.4306 14.6379C12.3575 14.75 12.2726 14.8543 12.1759 14.9509L11.0769 16.05L16 16.05C16.0169 16.05 16.0338 16.0502 16.0506 16.0506C16.0502 16.0338 16.05 16.0169 16.05 16L16.05 11.0759ZM16.0514 6.92549C16.0555 6.81462 16.0688 6.70567 16.0912 6.59865C16.1168 6.47679 16.1543 6.35743 16.2038 6.24057C16.2521 6.12625 16.3102 6.01839 16.3779 5.917C16.4485 5.81136 16.5295 5.71274 16.6211 5.62114C16.7127 5.52955 16.8114 5.44847 16.917 5.3779C16.958 5.35053 17 5.32473 17.0431 5.30052C17.0288 5.30017 17.0144 5.3 17 5.3L13.9988 5.3C14.1023 5.32329 14.2041 5.35523 14.3042 5.39582C14.4218 5.44351 14.5328 5.50139 14.637 5.56947C14.749 5.64258 14.8533 5.72745 14.95 5.82408L16.0514 6.92549ZM18 6.35C18.359 6.35 18.65 6.64102 18.65 7L18.65 16C18.65 16.359 18.359 16.65 18 16.65C17.641 16.65 17.35 16.359 17.35 16L17.35 7.0012L17.35 7C17.35 6.64102 17.641 6.35 18 6.35ZM15.9988 17.35L7.0012 17.35L7 17.35C6.64102 17.35 6.35 17.641 6.35 18C6.35 18.359 6.64102 18.65 7 18.65L16 18.65C16.359 18.65 16.65 18.359 16.65 18C16.65 17.641 16.359 17.35 16 17.35L15.9988 17.35L15.9988 17.35Z"/></svg>

<svg xmlns="http://www.w3.org/2000/svg" fill="none" viewBox="0 0 24 24" focusable="false"><g fill="#74767B" fill-rule="evenodd"><path d="M7 4C5.34 4 4 5.34 4 7v10c0 1.65 1.34 3 3 3h10c1.65 0 3-1.35 3-3V7c0-1.66-1.35-3-3-3zm-.26 10.03 1.8 1.79c.25.26.66.26.91 0l1.8-1.79a.64.64 0 0 0 0-.92.64.64 0 0 0-.92 0l-.69.68V12c0-1.3 1.06-2.35 2.36-2.35h1.79l-.68.68a.64.64 0 0 0 0 .92c.25.26.66.26.92 0l1.79-1.8c.26-.25.26-.66 0-.91l-1.79-1.8a.64.64 0 0 0-.92 0 .64.64 0 0 0 0 .92l.68.68H12c-2.02 0-3.65 1.64-3.65 3.66v1.79l-.69-.68a.64.64 0 0 0-.92 0 .64.64 0 0 0 0 .92M6.35 18c0-.36.29-.65.65-.65h9c.35 0 .64.29.64.65 0 .35-.29.65-.64.65H7c-.36 0-.65-.3-.65-.65M18.64 7c0-.36-.29-.66-.64-.66-.36 0-.65.3-.65.66v9c0 .35.29.65.65.65.35 0 .64-.3.64-.65z"/><path d="M7 4C5.34 4 4 5.34 4 7v10c0 1.65 1.34 3 3 3h10c1.65 0 3-1.35 3-3V7c0-1.66-1.35-3-3-3zm11.44 13.89q-.02.01-.04.01-.2.05-.4.05-.03 0-.06-.01.01.03.01.06 0 .2-.05.4 0 .02-.01.04.01-.01.02-.01.16-.1.29-.23t.23-.29q0-.01.01-.02M5.3 17.04q.03-.07.07-.13.11-.16.25-.29.13-.14.29-.25.15-.1.33-.17.17-.08.35-.11.16-.04.33-.04l-1.1-1.1q-.15-.15-.26-.32-.1-.15-.17-.33-.06-.15-.1-.31V17q0 .02.01.04m-.01-3.9V7q0-.21.05-.41.03-.13.09-.26t.13-.25q.1-.16.23-.29t.29-.23q.12-.07.25-.13t.26-.09q.2-.05.41-.05h6.14q-.16.04-.31.1-.17.07-.33.17-.17.11-.31.26-.15.14-.26.31-.1.16-.17.33-.07.18-.11.36-.02.12-.03.24-.35.02-.69.1-.44.1-.86.27-.43.18-.8.43-.42.28-.77.63-.36.36-.64.78-.25.37-.43.8-.17.42-.27.86-.08.34-.1.69-.12.01-.24.03-.18.04-.36.11-.17.07-.33.17-.17.11-.31.26-.15.14-.26.31-.1.16-.17.33-.06.15-.1.31m3.06-1.15v1.8l-.69-.68c-.17-.17-.4-.23-.62-.17-.11.02-.21.08-.3.17a.64.64 0 0 0 0 .92l1.8 1.79c.25.26.66.26.91 0l.19-.19 1.61-1.6a.64.64 0 0 0 0-.92.57.57 0 0 0-.3-.17.63.63 0 0 0-.62.17l-.69.68v-1.8c.01-.65.27-1.23.69-1.66a2.36 2.36 0 0 1 1.66-.68h1.8l-.68.68c-.17.17-.23.4-.18.62q.045.165.18.3c.25.26.66.26.92 0l1.6-1.6.19-.2c.26-.25.26-.66 0-.91l-.19-.2-1.6-1.6a.64.64 0 0 0-.92 0q-.135.135-.18.3c-.05.22.01.45.18.62l.68.68h-1.8l-.01.01c-.37 0-.73.05-1.08.16-.2.06-.4.15-.58.24q-.51.27-.9.66h-.01v.01q-.39.39-.66.9c-.09.18-.18.38-.24.58-.11.35-.16.71-.16 1.08zm7.69-.92-1.09 1.1q-.15.15-.32.26-.15.1-.33.17-.17.07-.35.1-.19.04-.38.04-.2 0-.39-.04-.17-.03-.35-.1-.17-.07-.33-.17-.17-.11-.31-.26-.15-.14-.26-.31-.1-.16-.17-.33-.07-.18-.11-.36l-.02-.16-.04.02q-.08.03-.16.08-.09.06-.18.14-.08.09-.14.18-.05.08-.08.16l-.02.04.16.02q.18.04.36.11.17.07.33.17.17.11.31.26.15.14.26.31.1.16.17.33.07.18.11.36.03.18.03.38 0 .19-.03.38-.04.18-.11.35-.07.18-.17.33-.11.17-.26.32l-1.1 1.09H16q.02 0 .05.01-.01-.03-.01-.05zm.01-4.15q0-.17.04-.33.03-.18.11-.35.07-.18.17-.33.11-.16.25-.29.13-.14.29-.25.06-.04.13-.07-.02-.01-.04-.01h-3.01q.16.04.31.1.18.07.33.17.17.11.32.26zm2.59.08c0-.36-.29-.66-.64-.66-.36 0-.65.3-.65.66v9c0 .35.29.65.65.65.35 0 .64-.3.64-.65zm-2.65 10.35H7c-.36 0-.65.29-.65.65 0 .35.29.65.65.65h9c.35 0 .64-.3.64-.65 0-.36-.29-.65-.64-.65z"/></g></svg>
